app/assets/svg/logo-footer.svg

<svg width="46" height="38" viewBox="0 0 46 38" fill="none" xmlns="http://www.w3.org/2000/svg">
<path d="M5.76782 35.4296C5.70896 34.7192 5.2852 34.0206 4.11987 33.9614C4.8379 33.8667 5.82667 32.2092 5.40291 30.9778C5.04978 29.9833 3.99039 30.374 3.36652 30.5634C3.24881 31.5106 3.51955 33.2511 2.47192 33.476C2.42484 32.9787 2.51901 32.15 2.38952 31.2857C2.14233 29.8531 0.400216 30.5161 0 30.6937C0.153024 32.2802 0.129482 32.7064 0.129482 34.6126C0.141253 35.2638 0.0706263 36.2938 0.129482 36.8503C0.294276 38.3303 2.04816 37.9396 2.53078 37.4305C2.53078 36.803 2.51901 35.5243 2.48369 34.8139C3.26058 34.7547 3.40183 34.9796 3.42538 36.6372C3.43715 38.2948 5.39114 37.9869 5.96793 37.4186C5.76782 36.803 5.82667 36.0215 5.76782 35.4296Z" fill="#1A212F"/>
<path d="M6.78905 34.2101C6.78905 37.6436 8.55471 37.9277 9.79067 37.8922C10.9325 37.8922 12.8041 37.5725 12.8158 34.2101C12.8041 31.333 11.5328 30.3148 9.82598 30.3148C8.02501 30.3148 6.78905 31.4277 6.78905 34.2101ZM9.82598 32.2447C9.95546 32.2447 10.4498 32.0552 10.4498 34.1272C10.4498 35.4769 10.238 36.2465 9.81421 36.2465C9.46108 36.2465 9.17857 35.9268 9.21389 34.1272C9.21389 32.4933 9.62587 32.2447 9.82598 32.2447Z" fill="#1A212F"/>
<path d="M15.2378 32.4933C15.2378 33.1682 15.226 33.9141 15.2614 36.211C15.2731 37.1345 15.3084 37.8922 16.3678 37.8685C17.3095 37.8685 17.5449 37.4897 17.6509 37.3713C17.6862 36.3412 17.6156 34.0917 17.592 32.5288C17.851 32.5288 18.0982 32.5288 18.3218 32.517C19.0752 32.4933 19.3341 32.0434 19.3224 31.4159C19.3106 30.7055 18.7338 30.3267 17.9334 30.3267H15.6969C13.9195 30.3385 13.8017 30.3385 13.6605 30.3267C13.3309 31.7237 13.531 32.4696 14.8847 32.4933H15.2378Z" fill="#1A212F"/>
<path d="M24.1709 30.374C23.347 30.2911 21.3577 30.3267 19.9804 30.3859C20.1335 31.9605 20.1452 33.9851 20.1217 35.4177C20.1452 36.7911 20.0275 37.7501 21.4636 37.8448C22.4053 37.9159 22.935 37.9159 23.7825 37.8448C24.9361 37.7501 25.4069 37.1226 24.8537 35.7492C23.9002 35.8913 23.0174 35.9268 22.4641 35.8203C22.4641 35.6545 22.4406 35.1336 22.4641 35.0033C22.9938 35.0033 23.5706 34.9796 24.0768 34.9796C25.1244 34.9796 25.0185 33.2866 24.065 33.2866C23.3823 33.2511 23.0762 33.3221 22.4406 33.2629V32.3276C23.1586 32.2684 23.4764 32.3039 24.0768 32.3276C25.2068 32.3631 25.2068 30.6108 24.1709 30.374Z" fill="#1A212F"/>
<path d="M27.8479 27.793C27.071 28.3021 27.1181 29.0717 27.6714 29.5334C28.2952 29.9833 29.5194 29.8412 30.3434 29.4742C31.0967 29.1308 31.391 28.3494 30.5906 27.7693C29.4017 28.3968 28.613 28.0771 27.8479 27.793ZM32.0384 31.3804C32.0384 30.67 31.5911 30.3267 30.8849 30.3267C30.0609 30.3267 29.6371 30.5398 29.3899 31.2975C29.0957 32.221 28.6601 33.6418 28.4129 34.6245C28.4129 34.1982 28.4836 31.6882 28.4836 31.3804C28.4836 30.599 28.0716 30.3267 27.3771 30.3267C26.8945 30.3267 26.0352 30.6345 26.0352 30.6345C26.1058 31.1673 26.1647 31.4751 26.1764 32.1736C26.2 32.9077 26.1764 34.0798 26.2471 36.4004C26.2824 37.537 26.6473 37.9159 27.5654 37.8804C29.2134 37.8212 29.3193 34.7665 29.7666 33.6536C29.7666 34.1627 29.7431 35.9268 29.7431 36.5188C29.7431 37.3239 29.8137 37.8804 30.7436 37.8804C31.544 37.8804 32.0031 37.6081 32.1444 37.3594C32.0502 37.0042 32.0149 34.8494 32.0149 33.1563C32.0149 32.4104 32.0266 31.7593 32.0384 31.3804Z" fill="#1A212F"/>
<path d="M38.8578 35.4296C38.799 34.7192 38.3752 34.0206 37.2099 33.9614C37.9279 33.8667 38.9167 32.2092 38.4929 30.9778C38.1398 29.9833 37.0804 30.374 36.4565 30.5634C36.3388 31.5106 36.6095 33.2511 35.5619 33.476C35.5148 32.9787 35.609 32.15 35.4795 31.2857C35.2323 29.8531 33.4902 30.5161 33.09 30.6937C33.243 32.2802 33.2195 32.7064 33.2195 34.6126C33.2313 35.2638 33.1606 36.2938 33.2195 36.8503C33.3843 38.3303 35.1382 37.9396 35.6208 37.4305C35.6208 36.803 35.609 35.5243 35.5737 34.8139C36.3506 34.7547 36.4918 34.9796 36.5154 36.6372C36.5271 38.2948 38.4811 37.9869 39.0579 37.4186C38.8578 36.803 38.9167 36.0215 38.8578 35.4296Z" fill="#1A212F"/>
<path d="M46 37.3713C45.8352 36.9095 45.847 36.6846 45.8117 36.0215C45.7175 34.2929 45.694 32.6236 45.1289 31.4751C44.1755 29.782 41.7153 30.2438 40.5265 31.0962C40.4205 33.1445 40.0674 33.9851 39.8437 36.2702C39.6789 37.9396 41.0679 38.4013 42.3627 37.5844C42.3627 37.3831 42.3627 36.6846 42.4216 36.5188C42.5746 36.5188 43.1514 36.5306 43.3751 36.5306C43.3751 36.5306 43.3162 37.2173 43.6458 37.5844C44.2343 38.2592 45.588 38.058 46 37.3713ZM42.504 35.0388C42.5864 34.3995 42.5864 33.0735 42.6217 32.7893C42.6806 32.7419 43.0808 32.7656 43.1279 32.8248C43.2691 33.3813 43.2691 34.3995 43.3044 35.0388H42.504Z" fill="#1A212F"/>
<path d="M28.4761 5.11195L33.2775 0.306021C33.9306 -0.347712 35.0475 0.11529 35.0475 1.03989V13.882C35.0474 9.71656 31.7522 7.18325 28.4761 5.11195Z" fill="#FF7236"/>
<path d="M35.0475 13.8822C35.0475 20.3403 29.8171 25.5756 23.3651 25.5756C16.9131 25.5756 11.6826 20.3402 11.6826 13.8822C11.6826 7.4242 16.913 2.91968 23.3651 2.91968C29.8172 2.91968 35.0475 7.42412 35.0475 13.8822Z" fill="#FFAA50"/>
<path d="M18.2539 13.882C18.2539 8.2538 21.4825 4.11194 25.7821 3.13975C25.0018 2.99645 24.194 2.91946 23.365 2.91946C21.2152 2.91946 19.2077 3.42899 17.4775 4.33479L13.4524 0.306021C12.7993 -0.347712 11.6825 0.11529 11.6825 1.03989V13.882C11.6825 13.6184 11.6825 13.6198 11.6825 13.882C11.6825 20.3401 16.9129 25.5754 23.3649 25.5754C24.194 25.5754 25.0018 25.486 25.782 25.3217C21.4825 24.2069 18.2539 19.5101 18.2539 13.882Z" fill="#FF7236"/>
<path d="M20.8094 21.1902C22.2208 21.1902 23.3649 20.2085 23.3649 18.9977C23.3649 17.7868 22.2208 16.8052 20.8094 16.8052C19.398 16.8052 18.2539 17.7868 18.2539 18.9977C18.2539 20.2085 19.398 21.1902 20.8094 21.1902Z" fill="#FFFDFB"/>
<path d="M25.9207 21.1902C27.3321 21.1902 28.4762 20.2085 28.4762 18.9977C28.4762 17.7868 27.3321 16.8052 25.9207 16.8052C24.5094 16.8052 23.3652 17.7868 23.3652 18.9977C23.3652 20.2085 24.5094 21.1902 25.9207 21.1902Z" fill="#FFFDFB"/>
<path d="M23.3652 18.9983C24.1717 18.9983 24.8255 18.3439 24.8255 17.5366C24.8255 16.7294 24.1717 16.075 23.3652 16.075C22.5586 16.075 21.9048 16.7294 21.9048 17.5366C21.9048 18.3439 22.5586 18.9983 23.3652 18.9983Z" fill="#FF913C"/>
<path d="M18.9842 14.6128C18.5806 14.6128 18.2541 14.2856 18.2541 13.882V13.1512C18.2541 12.7476 18.5807 12.4204 18.9842 12.4204C19.3877 12.4204 19.7143 12.7476 19.7143 13.1512V13.882C19.7143 14.2856 19.3877 14.6128 18.9842 14.6128Z" fill="#1A212F"/>
<path d="M27.7459 14.6128C27.3423 14.6128 27.0158 14.2856 27.0158 13.882V13.1512C27.0158 12.7476 27.3424 12.4204 27.7459 12.4204C28.1495 12.4204 28.4761 12.7476 28.4761 13.1512V13.882C28.4761 14.2856 28.1495 14.6128 27.7459 14.6128Z" fill="#1A212F"/>
</svg>

<svg width="46" height="38" fill="none" xmlns="http://www.w3.org/2000/svg"><path d="M5.768 35.43c-.059-.71-.483-1.41-1.648-1.469.718-.094 1.707-1.752 1.283-2.983-.353-.995-1.413-.604-2.036-.415-.118.948.153 2.688-.895 2.913-.047-.497.047-1.326-.082-2.19-.248-1.433-1.99-.77-2.39-.592.153 1.586.13 2.012.13 3.919.011.65-.06 1.68 0 2.237.164 1.48 1.918 1.09 2.4.58 0-.627-.011-1.906-.046-2.616.777-.06.918.166.941 1.823.012 1.658 1.966 1.35 2.543.782-.2-.616-.141-1.397-.2-1.99ZM6.789 34.21c0 3.434 1.766 3.718 3.002 3.682 1.141 0 3.013-.32 3.025-3.682-.012-2.877-1.283-3.895-2.99-3.895-1.801 0-3.037 1.113-3.037 3.895Zm3.037-1.965c.13 0 .624-.19.624 1.882 0 1.35-.212 2.12-.636 2.12-.353 0-.635-.32-.6-2.12 0-1.634.412-1.882.612-1.882ZM15.238 32.493c0 .675-.012 1.421.023 3.718.012.924.047 1.681 1.107 1.657.942 0 1.177-.378 1.283-.497.035-1.03-.035-3.28-.059-4.842.259 0 .506 0 .73-.012.753-.024 1.012-.474 1-1.101-.011-.71-.588-1.09-1.389-1.09h-2.236c-1.777.012-1.895.012-2.036 0-.33 1.398-.13 2.144 1.224 2.167h.353ZM24.17 30.374c-.823-.083-2.812-.047-4.19.012.154 1.575.165 3.6.142 5.032.023 1.373-.095 2.332 1.342 2.427.941.07 1.471.07 2.319 0 1.153-.095 1.624-.722 1.07-2.096-.953.142-1.836.178-2.389.071 0-.166-.023-.686 0-.817.53 0 1.107-.023 1.613-.023 1.047 0 .941-1.693-.012-1.693-.683-.036-.989.035-1.624-.024v-.935c.718-.06 1.035-.024 1.636 0 1.13.035 1.13-1.717.094-1.954ZM27.848 27.793c-.777.51-.73 1.279-.177 1.74.624.45 1.848.308 2.672-.059.754-.343 1.048-1.125.248-1.705-1.19.628-1.978.308-2.743.024Zm4.19 3.587c0-.71-.447-1.053-1.153-1.053-.824 0-1.248.213-1.495.97-.294.924-.73 2.345-.977 3.327 0-.426.07-2.936.07-3.244 0-.781-.411-1.053-1.106-1.053-.482 0-1.342.307-1.342.307.07.533.13.841.141 1.54.024.734 0 1.906.071 4.226.035 1.137.4 1.516 1.318 1.48 1.648-.059 1.754-3.114 2.202-4.226 0 .509-.024 2.273-.024 2.865 0 .805.07 1.361 1 1.361.801 0 1.26-.272 1.401-.52-.094-.356-.13-2.51-.13-4.204 0-.746.013-1.397.024-1.776ZM38.858 35.43c-.059-.71-.483-1.41-1.648-1.469.718-.094 1.707-1.752 1.283-2.983-.353-.995-1.413-.604-2.037-.415-.117.948.153 2.688-.894 2.913-.047-.497.047-1.326-.082-2.19-.248-1.433-1.99-.77-2.39-.592.153 1.586.13 2.012.13 3.919.011.65-.06 1.68 0 2.237.164 1.48 1.918 1.09 2.4.58 0-.627-.011-1.906-.046-2.616.777-.06.918.166.941 1.823.012 1.658 1.966 1.35 2.543.782-.2-.616-.141-1.397-.2-1.99ZM46 37.371c-.165-.462-.153-.686-.188-1.35-.094-1.728-.118-3.397-.683-4.546-.953-1.693-3.414-1.231-4.602-.379-.107 2.049-.46 2.89-.683 5.174-.165 1.67 1.224 2.131 2.519 1.314 0-.2 0-.9.059-1.065.153 0 .73.012.953.012 0 0-.059.686.27 1.053.59.675 1.943.474 2.355-.213Zm-3.496-2.332c.082-.64.082-1.965.118-2.25.059-.047.459-.023.506.036.141.556.141 1.575.176 2.214h-.8Z" fill="#1A212F"/><path d="M28.476 5.112 33.278.306c.653-.654 1.77-.19 1.77.734v12.842c0-4.165-3.296-6.699-6.572-8.77Z" fill="#FF7236"/><path d="M35.047 13.882c0 6.458-5.23 11.694-11.682 11.694S11.683 20.34 11.683 13.882c0-6.458 5.23-10.962 11.682-10.962s11.683 4.504 11.683 10.962Z" fill="#FFAA50"/><path d="M18.254 13.882c0-5.628 3.229-9.77 7.528-10.742-.78-.144-1.588-.22-2.417-.22-2.15 0-4.157.509-5.887 1.415L13.451.306c-.653-.654-1.77-.19-1.77.734v12.842c0-.264 0-.262 0 0 0 6.458 5.23 11.693 11.683 11.693.829 0 1.637-.089 2.417-.253-4.3-1.115-7.528-5.812-7.528-11.44Z" fill="#FF7236"/><path d="M20.81 21.19c1.41 0 2.555-.982 2.555-2.192 0-1.211-1.144-2.193-2.556-2.193-1.411 0-2.555.982-2.555 2.193 0 1.21 1.144 2.192 2.555 2.192ZM25.92 21.19c1.412 0 2.556-.982 2.556-2.192 0-1.211-1.144-2.193-2.555-2.193-1.412 0-2.556.982-2.556 2.193 0 1.21 1.144 2.192 2.556 2.192Z" fill="#FFFDFB"/><path d="M23.365 18.998a1.461 1.461 0 1 0-.001-2.922 1.461 1.461 0 0 0 .001 2.922Z" fill="#FF913C"/><path d="M18.984 14.613a.73.73 0 0 1-.73-.731v-.73a.73.73 0 1 1 1.46 0v.73a.73.73 0 0 1-.73.73ZM27.746 14.613a.73.73 0 0 1-.73-.731v-.73a.73.73 0 1 1 1.46 0v.73a.73.73 0 0 1-.73.73Z" fill="#1A212F"/></svg>
